assets/drawer/drawer_secret.svg

<svg height="16" viewBox="0 0 16 16" width="16" xmlns="http://www.w3.org/2000/svg"><g fill="none" fill-rule="evenodd"><path d="m0 0h16v16h-16z" fill="#fff" fill-opacity=".01" fill-rule="nonzero"/><path d="m8 14.6666667c1.84093333 0 3.5076-.7462 4.7140333-1.9526334 1.2064334-1.2064333 1.9526334-2.87309997 1.9526334-4.7140333s-.7462-3.5076-1.9526334-4.71404667c-1.2064333-1.20642666-2.87309997-1.95262-4.7140333-1.95262s-3.5076.74619334-4.71404667 1.95262c-1.20642666 1.20644667-1.95262 2.87311334-1.95262 4.71404667s.74619334 3.5076 1.95262 4.7140333c1.20644667 1.2064334 2.87311334 1.9526334 4.71404667 1.9526334z" stroke="#666" stroke-linejoin="round"/><path d="m8 12.3333333c.46023333 0 .83333333-.3731.83333333-.8333333s-.3731-.8333333-.83333333-.8333333-.83333333.3731-.83333333.8333333.3731.8333333.83333333.8333333z" fill="#666"/><path d="m8 4v5.333333" stroke="#666" stroke-linecap="round" stroke-linejoin="round"/></g></svg>

<?xml version="1.0" encoding="UTF-8"?>
<svg width="16px" height="16px" viewBox="0 0 16 16" version="1.1" xmlns="http://www.w3.org/2000/svg" xmlns:xlink="http://www.w3.org/1999/xlink">
    <title>编组</title>
    <g id="页面-1" stroke="none" stroke-width="1" fill="none" fill-rule="evenodd">
        <g id="歌库-个人中心" transform="translate(-107.000000, -572.000000)">
            <g id="编组-6" transform="translate(91.000000, 410.000000)">
                <g id="编组" transform="translate(16.000000, 162.000000)">
                    <rect id="矩形" fill-opacity="0.01" fill="#FFFFFF" fill-rule="nonzero" x="0" y="0" width="16" height="16"></rect>
                    <path d="M8,14.6666667 C9.84093333,14.6666667 11.5076,13.9204667 12.7140333,12.7140333 C13.9204667,11.5076 14.6666667,9.84093333 14.6666667,8 C14.6666667,6.15906667 13.9204667,4.4924 12.7140333,3.28595333 C11.5076,2.07952667 9.84093333,1.33333333 8,1.33333333 C6.15906667,1.33333333 4.4924,2.07952667 3.28595333,3.28595333 C2.07952667,4.4924 1.33333333,6.15906667 1.33333333,8 C1.33333333,9.84093333 2.07952667,11.5076 3.28595333,12.7140333 C4.4924,13.9204667 6.15906667,14.6666667 8,14.6666667 Z" id="路径" stroke="#666666" stroke-linejoin="round"></path>
                    <path d="M8,12.3333333 C8.46023333,12.3333333 8.83333333,11.9602333 8.83333333,11.5 C8.83333333,11.0397667 8.46023333,10.6666667 8,10.6666667 C7.53976667,10.6666667 7.16666667,11.0397667 7.16666667,11.5 C7.16666667,11.9602333 7.53976667,12.3333333 8,12.3333333 Z" id="路径" fill="#666666"></path>
                    <line x1="8" y1="4" x2="8" y2="9.33333333" id="路径" stroke="#666666" stroke-linecap="round" stroke-linejoin="round"></line>
                </g>
            </g>
        </g>
    </g>
</svg>
